X: 42705
T: Whistlin' October
R: hornpipe
M: 4/4
K: Dmajor
(E|:F)BBc (c/B/)AFE|FBBc (c/B/)ABc|(3ddd df edcB|(3AAA AB cABA|
FBBc BAFE|FBBc BABc|(3ddd df edcB|1 ABcA B3 E:|2 ABcA d3e||
f2fg a2ag|fefg afdf|e2ed c2cB|ABcd efga|
f2fe d2de|fefg afdf|edcB ABcA|B2BA B3c|
d2de f2fe|fefg afdf|e2ed c2cB|ABcd efga|
f2fe d2de|fefg afdf|edcB ABcA|B2BA B4||

